src/assets/img/blob_happenings.svg

<svg fill="none" height="237" viewBox="0 0 243 237" width="243" xmlns="http://www.w3.org/2000/svg"><path d="m144.454 87.0679c-1.927.1206-3.87.1083-5.815-.0128-2.044-.127-4.086-.3926-6.114-.7718-10.548-1.973-20.63-7.2379-27.633-14.7749 2.965-2.8849 10.447-8.7251 23.029-9.5108 2.332-.1462 4.689-.0913 7.043.1147 2.047.1795 4.09.479 6.114.9086 10.099 2.1412 19.675 7.2914 26.407 14.5357-2.966 2.8849-10.448 8.725-23.031 9.5113zm-83.4136-7.4127c-1.9266.1205-3.8702.1082-5.815-.0129-2.044-.1269-4.0862-.3925-6.1133-.7717-10.5486-1.9731-20.6312-7.2379-27.6341-14.775 2.9654-2.8849 10.4471-8.725 23.0295-9.5107 2.3321-.1462 4.6893-.0914 7.0429.1147 2.0469.1795 4.0898.479 6.1136.9083 10.0989 2.1415 19.675 7.2916 26.4071 14.5359-2.966 2.8849-10.4477 8.7251-23.0307 9.5114zm180.2176 45.4528c-2.894-21.402-13.495-36.2763-33.917-66.138-16-23.3955-24.338-35.2943-40.929-45.148-7.72-4.58539-27.684-14.97057-54.014-13.719016-18.8109.894012-32.4149 7.326046-42.9484 12.306316-9.2308 4.3644-23.5178 11.1195-36.517 24.8864-18.6265 19.7272-23.53237 42.1213-28.33313 64.0363-2.44445 11.157-6.51872 30.544-3.56874 55.603 1.96869 16.718 3.6528 31.027 12.86697 44.369 15.5564 22.526 42.5086 27.714 66.4269 32.319 42.2334 8.129 75.8454-1.797 91.4994-6.621 23.629-7.282 38.232-11.781 51.025-25.998 24.925-27.697 19.693-66.396 18.409-75.896z" fill="#212322"/><path d="m57.6652 55.6105 10.8244 12.9362-13.263 11.098c1.945.1214 3.8886.1337 5.8153.0128 12.583-.7863 20.0646-6.6261 23.0306-9.511-6.7321-7.2443-16.3085-12.3945-26.4073-14.536z" fill="#fff"/><path d="m51.5509 54.7001c-2.3533-.2061-4.7105-.261-7.0429-.1147-12.5824.7857-20.064 6.6258-23.0295 9.5107 7.0033 7.5371 17.0855 12.8016 27.6341 14.775l-10.8922-13.0164z" fill="#fff"/><path d="m57.6648 55.6085c-2.0236-.4294-4.0667-.7292-6.1136-.9084l-13.3305 11.1546 10.8922 13.0162c2.027.3791 4.0696.6447 6.1133.7717l13.2631-11.098z" fill="#000"/><path d="m141.079 63.0207 10.825 12.9362-13.263 11.0979c1.944.1215 3.888.1337 5.815.0129 12.583-.7863 20.065-6.6262 23.031-9.5111-6.732-7.2443-16.309-12.3947-26.408-14.5359z" fill="#fff"/><path d="m134.965 62.1122c-2.353-.2061-4.711-.2609-7.043-.1147-12.582.7857-20.064 6.6258-23.029 9.5107 7.003 7.5371 17.085 12.8019 27.634 14.775l-10.892-13.0164z" fill="#fff"/><path d="m141.077 63.0225c-2.024-.4293-4.067-.7291-6.114-.9086l-13.33 11.1546 10.892 13.0164c2.027.3792 4.07.6448 6.113.7717l13.263-11.0979z" fill="#000"/></svg>

<svg width="243" height="237" viewBox="0 0 243 237" fill="none" xmlns="http://www.w3.org/2000/svg">
<path d="M144.454 87.0679C142.527 87.1885 140.584 87.1762 138.639 87.0551C136.595 86.9281 134.553 86.6625 132.525 86.2833C121.977 84.3103 111.895 79.0454 104.892 71.5084C107.857 68.6235 115.339 62.7833 127.921 61.9976C130.253 61.8514 132.61 61.9063 134.964 62.1123C137.011 62.2918 139.054 62.5913 141.078 63.0209C151.177 65.1621 160.753 70.3123 167.485 77.5566C164.519 80.4415 157.037 86.2816 144.454 87.0679ZM61.0404 79.6552C59.1138 79.7757 57.1702 79.7634 55.2254 79.6423C53.1814 79.5154 51.1392 79.2498 49.1121 78.8706C38.5635 76.8975 28.4809 71.6327 21.478 64.0956C24.4434 61.2107 31.9251 55.3706 44.5075 54.5849C46.8396 54.4387 49.1968 54.4935 51.5504 54.6996C53.5973 54.8791 55.6402 55.1786 57.664 55.6079C67.7629 57.7494 77.339 62.8995 84.0711 70.1438C81.1051 73.0287 73.6234 78.8689 61.0404 79.6552ZM241.258 125.108C238.364 103.706 227.763 88.8317 207.341 58.97C191.341 35.5745 183.003 23.6757 166.412 13.822C158.692 9.23661 138.728 -1.14857 112.398 0.102984C93.5871 0.996996 79.9831 7.42903 69.4496 12.4093C60.2188 16.7737 45.9318 23.5288 32.9326 37.2957C14.3061 57.0229 9.40023 79.417 4.59947 101.332C2.15502 112.489 -1.91925 131.876 1.03073 156.935C2.99942 173.653 4.68353 187.962 13.8977 201.304C29.4541 223.83 56.4063 229.018 80.3246 233.623C122.558 241.752 156.17 231.826 171.824 227.002C195.453 219.72 210.056 215.221 222.849 201.004C247.774 173.307 242.542 134.608 241.258 125.108Z" fill="#212322"/>
<path d="M57.6652 55.6105L68.4896 68.5467L55.2266 79.6447C57.1716 79.7661 59.1152 79.7784 61.0419 79.6575C73.6249 78.8712 81.1065 73.0314 84.0725 70.1465C77.3404 62.9022 67.764 57.752 57.6652 55.6105Z" fill="white"/>
<path d="M51.5509 54.7001C49.1976 54.494 46.8404 54.4391 44.508 54.5854C31.9256 55.3711 24.444 61.2112 21.4785 64.0961C28.4818 71.6332 38.564 76.8977 49.1126 78.8711L38.2204 65.8547L51.5509 54.7001Z" fill="white"/>
<path d="M57.6648 55.6085C55.6412 55.1791 53.5981 54.8793 51.5512 54.7001L38.2207 65.8547L49.1129 78.8709C51.1399 79.25 53.1825 79.5156 55.2262 79.6426L68.4893 68.5446L57.6648 55.6085Z" fill="black"/>
<path d="M141.079 63.0207L151.904 75.9569L138.641 87.0548C140.585 87.1763 142.529 87.1885 144.456 87.0677C157.039 86.2814 164.521 80.4415 167.487 77.5566C160.755 70.3123 151.178 65.1619 141.079 63.0207Z" fill="white"/>
<path d="M134.965 62.1122C132.612 61.9061 130.254 61.8513 127.922 61.9975C115.34 62.7832 107.858 68.6233 104.893 71.5082C111.896 79.0453 121.978 84.3101 132.527 86.2832L121.635 73.2668L134.965 62.1122Z" fill="white"/>
<path d="M141.077 63.0225C139.053 62.5932 137.01 62.2934 134.963 62.1139L121.633 73.2685L132.525 86.2849C134.552 86.6641 136.595 86.9297 138.638 87.0566L151.901 75.9587L141.077 63.0225Z" fill="black"/>
</svg>
